src/svg/resizeleftright.svg

<?xml version="1.0" encoding="UTF-8" standalone="no"?>
<svg width="35px" height="35px" viewBox="0 0 35 35" version="1.1" xmlns="http://www.w3.org/2000/svg" xmlns:xlink="http://www.w3.org/1999/xlink">
    <defs></defs>
    <g id="Page-1" stroke="none" stroke-width="1" fill="none" fill-rule="evenodd">
        <g id="resizeleftright">
            <g id="bg-copy" fill="#FFFFFF" opacity="0.00999999978">
                <rect id="bg" x="0" y="0" width="35" height="35"></rect>
            </g>
            <path d="M15,9 L15,15.006 L13.979,15.006 L13.979,11.54 L8,17.012 L13.979,22.473 L13.979,18.995 L15,18.995 L15,25 L15.02,25 L18.981,25 L18.981,18.994 L20.039,18.994 L20.039,22.461 L26,16.988 L20.039,11.527 L20.039,15.005 L18.981,15.005 L18.981,9 L15,9 Z" id="resize-border" fill="#FFFFFF"></path>
            <path d="M24.3398,16.9888 L21.0198,13.7658 L21.0198,16.0198 L17.9998,16.0198 L17.9998,10.0598 L17.9808,10.0598 L17.9808,10.0398 L16.0398,10.0398 L16.0398,16.0398 L12.9798,16.0398 L12.9798,13.7598 L9.6598,17.0108 L12.9798,20.2348 L12.9798,17.9808 L16.0398,17.9808 L16.0398,23.9808 L16.0598,23.9808 L17.9808,23.9808 L17.9998,23.9808 L17.9998,17.9808 L21.0198,17.9808 L21.0198,20.2398 L24.3398,16.9888 Z" id="resize" fill="#000000"></path>
        </g>
    </g>
</svg>

<svg height="35" viewBox="0 0 35 35" width="35" xmlns="http://www.w3.org/2000/svg"><g fill="none" fill-rule="evenodd"><path d="m15 9v6.006h-1.021v-3.466l-5.979 5.472 5.979 5.461v-3.478h1.021v6.005h.02 3.961v-6.006h1.058v3.467l5.961-5.473-5.961-5.461v3.478h-1.058v-6.005z" fill="#fff"/><path d="m24.3398 16.9888-3.32-3.223v2.254h-3.02v-5.96h-.019v-.02h-1.941v6h-3.06v-2.28l-3.32 3.251 3.32 3.224v-2.254h3.06v6h.02 1.921.019v-6h3.02v2.259z" fill="#000"/></g></svg>
